src/assets/Vector.svg

<svg width="202" height="34" viewBox="0 0 202 34" fill="none" xmlns="http://www.w3.org/2000/svg">
<path d="M163.191 32.4346L178.464 16.9949L178.913 16.5404L178.464 16.0859L163.191 0.64627L185.368 0.646266L201.09 16.5404L185.368 32.4346L163.191 32.4346Z" stroke="#922630" strokeWidth="1.29251"/>
<path opacity="0.8" d="M129.3 32.4346L144.573 16.9949L145.023 16.5404L144.573 16.0859L129.3 0.64627L151.477 0.646266L167.2 16.5404L151.477 32.4346L129.3 32.4346Z" stroke="#922630" strokeWidth="1.29251"/>
<path opacity="0.7" d="M117.856 1.10634e-05L93.8613 1.52588e-05L110.223 16.5404L93.8613 33.0808L117.856 33.0808L134.218 16.5404L117.856 1.10634e-05Z" fill="#922630"/>
<path opacity="0.5" d="M73.6781 16.953L74.1234 16.5L73.6781 16.047L58.5413 0.646254L80.5118 0.646251L96.0939 16.5L80.5118 32.3537L58.5413 32.3538L73.6781 16.953Z" stroke="#922630" strokeWidth="1.29251"/>
<path opacity="0.3" d="M39.6781 16.953L40.1234 16.5L39.6781 16.047L24.5413 0.646254L46.5118 0.646251L62.0939 16.5L46.5118 32.3537L24.5413 32.3538L39.6781 16.953Z" stroke="#922630" strokeWidth="1.29251"/>
<path d="M12.7828 1.11005e-05L-11 1.52588e-05L5.21722 16.5L-11 33L12.7828 33L29 16.5L12.7828 1.11005e-05Z" fill="#922630" fillOpacity="0.1"/>
</svg>

<svg width="202" height="34" fill="none" xmlns="http://www.w3.org/2000/svg"><path d="m163.191 32.435 15.273-15.44.449-.455-.449-.454L163.191.646h22.177L201.09 16.54l-15.722 15.895h-22.177Z" stroke="#922630"/><path opacity=".8" d="m129.3 32.435 15.273-15.44.45-.455-.45-.454L129.3.646h22.177L167.2 16.54l-15.723 15.895H129.3Z" stroke="#922630"/><path opacity=".7" d="M117.856 0H93.861l16.362 16.54-16.362 16.54h23.995l16.362-16.54L117.856 0Z" fill="#922630"/><path opacity=".5" d="m73.678 16.953.445-.453-.445-.453L58.541.647h21.97L96.095 16.5 80.512 32.354h-21.97l15.136-15.401Z" stroke="#922630"/><path opacity=".3" d="m39.678 16.953.445-.453-.445-.453L24.541.647h21.97L62.095 16.5 46.512 32.354h-21.97l15.136-15.401Z" stroke="#922630"/><path d="M12.783 0H-11L5.217 16.5-11 33h23.783L29 16.5 12.783 0Z" fill="#922630"/></svg>
